src/img/projects/ror.svg

<?xml version="1.0" encoding="UTF-8"?>
<svg width="90px" height="90px" viewBox="0 0 90 90" version="1.1" xmlns="http://www.w3.org/2000/svg" xmlns:xlink="http://www.w3.org/1999/xlink">
    <!-- Generator: Sketch 41.2 (35397) - http://www.bohemiancoding.com/sketch -->
    <title>community/card/logo/ror</title>
    <desc>Created with Sketch.</desc>
    <defs></defs>
    <g id="Symbols" stroke="none" stroke-width="1" fill="none" fill-rule="evenodd">
        <g id="community/card/logo/ror" fill="#FF4F81">
            <path d="M62.1441529,25.2191155 L64.9008831,27.2201904 L64.4003447,27.9702174 L62.0604786,26.7199217 L62.1441529,25.2191155 Z M54.1249854,22.8020276 L54.4589289,24.9693573 L51.0328041,25.0528608 L50.5330195,22.6350206 L54.1249854,22.8020276 Z M43.5156825,23.9695721 L45.5200975,26.2204052 L42.7641212,27.8039627 L40.7589524,25.3868748 L43.5156825,23.9695721 Z M34.1599871,31.1388368 L37.0833121,33.0564082 L34.828628,35.7232544 L31.8208748,33.723684 L34.1599871,31.1388368 Z M26.7250323,42.1432444 L30.5680212,43.6440506 L29.3988419,46.8954213 L25.4721787,45.6443733 L26.7250323,42.1432444 Z M22.5480998,56.0650087 L26.892381,56.3982704 L26.1408196,60.7329297 L22.0468076,60.232661 L22.5480998,56.0650087 Z M50.1154016,44.0600636 L49.4460069,46.8111655 L46.6063563,44.3933253 L47.6911073,42.2259956 L50.1154016,44.0600636 Z M49.2794121,36.8907988 L51.0328041,35.3064891 L52.7040293,37.8070805 L51.7014449,39.5583972 L49.2794121,36.8907988 Z M49.6977838,51.4798388 L49.8643786,54.2309407 L46.3560871,52.7301345 L46.5234357,49.8127779 L49.6977838,51.4798388 Z M51.2001527,60.1499098 L52.7877037,63.4020327 L48.360502,63.1515222 L47.5245125,60.1499098 L51.2001527,60.1499098 Z M55.5451877,34.7234692 L54.4596828,32.7231465 L56.7980413,32.1393743 L57.1319848,33.4731735 L55.5451877,34.7234692 Z M61.6428607,32.8894012 L61.6428607,31.6391055 L63.8982987,32.138622 L63.8982987,33.1391595 L61.6428607,32.8894012 Z M66.5721084,32.7223942 C66.5721084,32.7223942 64.0664012,29.8870365 59.4710971,30.3873053 C54.8765468,30.887574 46.7729511,35.5562473 45.5200975,45.8098757 C44.2672439,56.0635041 49.1964916,67.2349187 49.1964916,67.2349187 L26.9753015,67.2349187 C26.9753015,67.2349187 26.3910888,63.5667828 27.8105372,56.5637728 C29.2307394,49.5607628 31.3188288,44.8920895 34.9115485,38.2230935 C38.5035144,31.5533452 44.2672439,26.0511414 52.6211088,25.3018667 C60.9742199,24.5510875 67.5746928,31.2208357 67.5746928,31.2208357 L66.5721084,32.7223942 Z" id="rails"></path>
        </g>
    </g>
</svg>

<svg width="90" height="90" viewBox="0 0 90 90" xmlns="http://www.w3.org/2000/svg"><title>community/card/logo/ror</title><path d="M62.144 25.22l2.757 2-.5.75-2.34-1.25.083-1.5zm-8.019-2.418l.334 2.167-3.426.084-.5-2.418 3.592.167zm-10.61 1.168l2.005 2.25-2.756 1.584-2.005-2.417 2.757-1.417zm-9.355 7.169l2.923 1.917-2.254 2.667-3.008-2 2.339-2.584zm-7.435 11.004l3.843 1.501-1.17 3.251-3.926-1.25 1.253-3.502zm-4.177 13.922l4.344.333-.751 4.335-4.094-.5.501-4.168zM50.115 44.06l-.669 2.751-2.84-2.418 1.085-2.167 2.424 1.834zm-.836-7.17l1.754-1.584 1.671 2.501-1.003 1.751-2.422-2.667zm.419 14.59l.166 2.75-3.508-1.5.167-2.917 3.175 1.667zm1.502 8.67l1.588 3.252-4.427-.25-.836-3.002H51.2zm4.345-25.427l-1.085-2 2.338-.584.334 1.334-1.587 1.25zm6.098-1.834v-1.25l2.255.5v1l-2.255-.25zm4.93-.167s-2.507-2.835-7.102-2.335c-4.594.5-12.698 5.17-13.95 15.423-1.254 10.254 3.675 21.425 3.675 21.425h-22.22s-.585-3.668.835-10.671c1.42-7.003 3.508-11.672 7.1-18.34 3.593-6.67 9.356-12.173 17.71-12.922 8.353-.75 14.954 5.919 14.954 5.919l-1.003 1.501z" fill="#FF4F81" fill-rule="evenodd"/></svg>
